styles/1/Numix/48/places/pink-folder-hdd.svg

<?xml version="1.0" encoding="UTF-8" standalone="no"?>
<!-- Created with Inkscape (http://www.inkscape.org/) -->

<svg
   xmlns:dc="http://purl.org/dc/elements/1.1/"
   xmlns:cc="http://creativecommons.org/ns#"
   xmlns:rdf="http://www.w3.org/1999/02/22-rdf-syntax-ns#"
   xmlns:svg="http://www.w3.org/2000/svg"
   xmlns="http://www.w3.org/2000/svg"
   xmlns:sodipodi="http://sodipodi.sourceforge.net/DTD/sodipodi-0.dtd"
   xmlns:inkscape="http://www.inkscape.org/namespaces/inkscape"
   width="48"
   height="48"
   id="svg2"
   version="1.1"
   inkscape:version="0.91 r"
   sodipodi:docname="pink-folder-hdd.svg">
  <defs
     id="defs4" />
  <sodipodi:namedview
     id="base"
     pagecolor="#ffffff"
     bordercolor="#666666"
     borderopacity="1.0"
     inkscape:pageopacity="0.0"
     inkscape:pageshadow="2"
     inkscape:zoom="8.815"
     inkscape:cx="28.747621"
     inkscape:cy="12.186961"
     inkscape:document-units="px"
     inkscape:current-layer="layer1"
     showgrid="true"
     inkscape:window-width="1280"
     inkscape:window-height="998"
     inkscape:window-x="0"
     inkscape:window-y="0"
     inkscape:window-maximized="1">
    <inkscape:grid
       type="xygrid"
       id="grid2990"
       empspacing="5"
       visible="true"
       enabled="true"
       snapvisiblegridlinesonly="true" />
  </sodipodi:namedview>
  <metadata
     id="metadata7">
    <rdf:RDF>
      <cc:Work
         rdf:about="">
        <dc:format>image/svg+xml</dc:format>
        <dc:type
           rdf:resource="http://purl.org/dc/dcmitype/StillImage" />
        <dc:title />
      </cc:Work>
    </rdf:RDF>
  </metadata>
  <g
     inkscape:label="Body"
     inkscape:groupmode="layer"
     id="layer1"
     transform="translate(0,-1004.3622)">
    <path
       style="font-size:medium;font-style:normal;font-variant:normal;font-weight:normal;font-stretch:normal;text-indent:0;text-align:start;text-decoration:none;line-height:normal;letter-spacing:normal;word-spacing:normal;text-transform:none;direction:ltr;block-progression:tb;writing-mode:lr-tb;text-anchor:start;baseline-shift:baseline;color:#000000;fill:#f06292;fill-opacity:1;fill-rule:nonzero;stroke:none;stroke-width:3.00000024;marker:none;visibility:visible;display:inline;overflow:visible;enable-background:accumulate;font-family:Sans;-inkscape-font-specification:Sans"
       d="M 5.1875 8 C 4.511132 8.144 3.984919 8.8087 4 9.5 L 4 37.5 C 4.000079 38.2853 4.714623 38.9999 5.5 39 L 42.5 39 C 43.285377 38.9999 43.999921 38.2853 44 37.5 L 44 12.53125 C 43.999921 11.74585 43.285377 11.03135 42.5 11.03125 L 28 11.03125 L 28 9.5 C 27.999921 8.7147 27.285377 8 26.5 8 L 5.5 8 C 5.396212 7.989 5.291288 7.989 5.1875 8 z M 19 17 L 29 17 C 30.108 17 31 17.892 31 19 L 31 31 C 31 32.108 30.108 33 29 33 L 19 33 C 17.892 33 17 32.108 17 31 L 17 19 C 17 17.892 17.892 17 19 17 z M 20 19 C 19.447715 19 19 19.4477 19 20 C 19 20.5523 19.447715 21 20 21 C 20.552285 21 21 20.5523 21 20 C 21 19.4477 20.552285 19 20 19 z M 28 19 C 27.447715 19 27 19.4477 27 20 C 27 20.5523 27.447715 21 28 21 C 28.552285 21 29 20.5523 29 20 C 29 19.4477 28.552285 19 28 19 z M 24 20 C 22.343146 20 21 21.3431 21 23 C 21 24.6569 22.343146 26 24 26 C 25.656854 26 27 24.6569 27 23 C 27 21.3431 25.656854 20 24 20 z M 24 22 C 24.552285 22 25 22.447715 25 23 C 25 23.552285 24.552285 24 24 24 C 23.447715 24 23 23.552285 23 23 C 23 22.447715 23.447715 22 24 22 z M 20 25 C 19.447715 25 19 25.4477 19 26 C 19 26.5523 19.447715 27 20 27 C 20.552285 27 21 26.5523 21 26 C 21 25.4477 20.552285 25 20 25 z M 28 25 C 27.447715 25 27 25.4477 27 26 C 27 26.5523 27.447715 27 28 27 C 28.552285 27 29 26.5523 29 26 C 29 25.4477 28.552285 25 28 25 z M 19.5 30 C 19.223 30 19 30.223 19 30.5 C 19 30.777 19.223 31 19.5 31 L 28.5 31 C 28.777 31 29 30.777 29 30.5 C 29 30.223 28.777 30 28.5 30 L 19.5 30 z "
       transform="translate(0,1004.3622)"
       id="path3912" />
  </g>
</svg>

<!-- Created with Inkscape (http://www.inkscape.org/) -->
<svg xmlns="http://www.w3.org/2000/svg" viewBox="0 0 48 48">
 <g transform="translate(0,-1004.3622)">
  <path d="m 5.188 8 c -0.676 0.144 -1.203 0.809 -1.188 1.5 l 0 28 c 0 0.785 0.715 1.5 1.5 1.5 l 37 0 c 0.785 0 1.5 -0.715 1.5 -1.5 l 0 -24.969 c 0 -0.785 -0.715 -1.5 -1.5 -1.5 l -14.5 0 l 0 -1.531 c 0 -0.785 -0.715 -1.5 -1.5 -1.5 l -21 0 c -0.104 -0.011 -0.209 -0.011 -0.313 0 z m 13.813 9 l 10 0 c 1.108 0 2 0.892 2 2 l 0 12 c 0 1.108 -0.892 2 -2 2 l -10 0 c -1.108 0 -2 -0.892 -2 -2 l 0 -12 c 0 -1.108 0.892 -2 2 -2 z m 1 2 c -0.552 0 -1 0.448 -1 1 c 0 0.552 0.448 1 1 1 c 0.552 0 1 -0.448 1 -1 c 0 -0.552 -0.448 -1 -1 -1 z m 8 0 c -0.552 0 -1 0.448 -1 1 c 0 0.552 0.448 1 1 1 c 0.552 0 1 -0.448 1 -1 c 0 -0.552 -0.448 -1 -1 -1 z m -4 1 c -1.657 0 -3 1.343 -3 3 c 0 1.657 1.343 3 3 3 c 1.657 0 3 -1.343 3 -3 c 0 -1.657 -1.343 -3 -3 -3 z m 0 2 c 0.552 0 1 0.448 1 1 c 0 0.552 -0.448 1 -1 1 c -0.552 0 -1 -0.448 -1 -1 c 0 -0.552 0.448 -1 1 -1 z m -4 3 c -0.552 0 -1 0.448 -1 1 c 0 0.552 0.448 1 1 1 c 0.552 0 1 -0.448 1 -1 c 0 -0.552 -0.448 -1 -1 -1 z m 8 0 c -0.552 0 -1 0.448 -1 1 c 0 0.552 0.448 1 1 1 c 0.552 0 1 -0.448 1 -1 c 0 -0.552 -0.448 -1 -1 -1 z m -8.5 5 c -0.277 0 -0.5 0.223 -0.5 0.5 c 0 0.277 0.223 0.5 0.5 0.5 l 9 0 c 0.277 0 0.5 -0.223 0.5 -0.5 c 0 -0.277 -0.223 -0.5 -0.5 -0.5 l -9 0 z" transform="translate(0,1004.3622)" style="visibility:visible;fill:#f06292;fill-opacity:1;stroke:none;display:inline;color:#000;fill-rule:nonzero"/>
 </g>
</svg>
